X:2668
T:How d'Ye Do?
O:england
M:6/8
C:
S:Bacon (CJS MSS)
N:
A:Sherborne
R:Jig
%P:A/2.(AB$^3$)$^4$.(AC$^3$)$^4$.A
P:A.(AB3)4.(AC3)4.A
K:D
I:speed 300
P:A
|: z | FED FGA | BcB ABc | dcd Bed | cBc d2 :|\
P:B
A | cde ecA | ecA ABc | ded dcB | AFD G3 |\
FGA D3  | GAB E3  | FGA Bed | cBc d2 ||\
P:C
A | cde ecA | ecA ABc | ded dcB | AFD G3 | FGA D3 |\
M:4/4
FG A2 D2 D2 | GA B2 E2 E2 |\
M:6/8
FGA Bed | cBc d2 ||


